svg/blobs-icons/no-decorations/travel-luggage.svg

<svg xmlns="http://www.w3.org/2000/svg" xmlns:xlink="http://www.w3.org/1999/xlink" preserveAspectRatio="xMidYMid" width="96" height="218" viewBox="0 0 96 218"><defs><style>.cls-3{fill:#ff3a2f}.cls-4{fill:#020403;opacity:.35}.cls-5{fill:#142a3b}.cls-7{fill:#fff}</style></defs><g id="group-37svg"><path d="M-.001 196.933s0-122.584.0-122.584C-.001 70.8 2.877 67.923 6.425 67.923H88.566C92.115 67.923 94.992 70.8 94.992 74.349V196.933C94.992 200.482 92.115 203.359 88.566 203.359H6.425C2.877 203.359-.001 200.482-.001 196.933z" id="path-1" class="cls-3" fill-rule="evenodd"/><path d="M74.253 68.058C78.144 72.209 80.543 77.775 80.543 83.913V172.92c0 12.822-10.393 23.215-23.213 23.215H8.763C7.926 196.135 7.102 196.085 6.288 196 10.523 200.519 16.53 203.359 23.212 203.359H71.779c12.82.0 23.213-10.393 23.213-23.213V91.137c0-11.984-9.083-21.842-20.739-23.079z" id="path-2" class="cls-4" fill-rule="evenodd"/><path d="M72.626 71.866s-50.262.0-50.262.0.0-68.274.0-68.274 50.262.0 50.262.0.0 68.274.0 68.274zM29.594 64.637s35.803.0 35.803.0.0-53.815.0-53.815-35.803.0-35.803.0.0 53.815.0 53.815z" id="path-3" class="cls-5" fill-rule="evenodd"/><path d="M64.481 11.941s-33.97.0-33.97.0.0-11.928.0-11.928 33.97.0 33.97.0.0 11.928.0 11.928z" id="path-4" class="cls-3" fill-rule="evenodd"/><path d="M70.233 107.311s-45.475.0-45.475.0c-1.996.0-3.615-1.61800000000001-3.615-3.614.0-1.997 1.619-3.616 3.615-3.616H70.233C72.229 100.081 73.847 101.7 73.847 103.697c0 1.996-1.618 3.614-3.61399999999999 3.614z" id="path-5" class="cls-7" fill-rule="evenodd"/><path d="M72.799 138.17s-50.605.0-50.605.0C20.197 138.17 18.579 136.552 18.579 134.556c0-1.99700000000001 1.618-3.614 3.615-3.614H72.799C74.795 130.942 76.413 132.559 76.413 134.556 76.413 136.552 74.795 138.17 72.799 138.17z" id="path-6" class="cls-7" fill-rule="evenodd"/><path d="M72.799 173.398s-50.605.0-50.605.0c-1.997.0-3.615-1.618-3.615-3.614C18.579 167.788 20.197 166.169 22.194 166.169H72.799C74.795 166.169 76.413 167.788 76.413 169.784 76.413 171.78 74.795 173.398 72.799 173.398z" id="path-7" class="cls-7" fill-rule="evenodd"/><path d="M33.447 216.892s-10.81.0-10.81.0.0-13.533.0-13.533 10.81.0 10.81.0.0 13.533.0 13.533z" id="path-8" class="cls-5" fill-rule="evenodd"/><path d="M72.197 216.892s-10.81.0-10.81.0.0-13.533.0-13.533 10.81.0 10.81.0.0 13.533.0 13.533z" id="path-9" class="cls-5" fill-rule="evenodd"/></g></svg>

<svg xmlns="http://www.w3.org/2000/svg" xmlns:xlink="http://www.w3.org/1999/xlink" preserveAspectRatio="xMidYMid" width="96" height="218" viewBox="0 0 96 218">
  <defs>
    <style>

      .cls-3 {
        fill: #ff3a2f;
      }

      .cls-4 {
        fill: #020403;
        opacity: 0.35;
      }

      .cls-5 {
        fill: #142a3b;
      }

      .cls-7 {
        fill: #ffffff;
      }
    </style>
  </defs>
  <g id="group-37svg">
    <path d="M-0.001,196.933 C-0.001,196.933 -0.001,74.349 -0.001,74.349 C-0.001,70.800 2.877,67.923 6.425,67.923 C6.425,67.923 88.566,67.923 88.566,67.923 C92.115,67.923 94.992,70.800 94.992,74.349 C94.992,74.349 94.992,196.933 94.992,196.933 C94.992,200.482 92.115,203.359 88.566,203.359 C88.566,203.359 6.425,203.359 6.425,203.359 C2.877,203.359 -0.001,200.482 -0.001,196.933 Z" id="path-1" class="cls-3" fill-rule="evenodd"/>
    <path d="M74.253,68.058 C78.144,72.209 80.543,77.775 80.543,83.913 C80.543,83.913 80.543,172.920 80.543,172.920 C80.543,185.742 70.150,196.135 57.330,196.135 C57.330,196.135 8.763,196.135 8.763,196.135 C7.926,196.135 7.102,196.085 6.288,196.000 C10.523,200.519 16.530,203.359 23.212,203.359 C23.212,203.359 71.779,203.359 71.779,203.359 C84.599,203.359 94.992,192.966 94.992,180.146 C94.992,180.146 94.992,91.137 94.992,91.137 C94.992,79.153 85.909,69.295 74.253,68.058 Z" id="path-2" class="cls-4" fill-rule="evenodd"/>
    <path d="M72.626,71.866 C72.626,71.866 22.364,71.866 22.364,71.866 C22.364,71.866 22.364,3.592 22.364,3.592 C22.364,3.592 72.626,3.592 72.626,3.592 C72.626,3.592 72.626,71.866 72.626,71.866 ZM29.594,64.637 C29.594,64.637 65.397,64.637 65.397,64.637 C65.397,64.637 65.397,10.822 65.397,10.822 C65.397,10.822 29.594,10.822 29.594,10.822 C29.594,10.822 29.594,64.637 29.594,64.637 Z" id="path-3" class="cls-5" fill-rule="evenodd"/>
    <path d="M64.481,11.941 C64.481,11.941 30.511,11.941 30.511,11.941 C30.511,11.941 30.511,0.013 30.511,0.013 C30.511,0.013 64.481,0.013 64.481,0.013 C64.481,0.013 64.481,11.941 64.481,11.941 Z" id="path-4" class="cls-3" fill-rule="evenodd"/>
    <path d="M70.233,107.311 C70.233,107.311 24.758,107.311 24.758,107.311 C22.762,107.311 21.143,105.693 21.143,103.697 C21.143,101.700 22.762,100.081 24.758,100.081 C24.758,100.081 70.233,100.081 70.233,100.081 C72.229,100.081 73.847,101.700 73.847,103.697 C73.847,105.693 72.229,107.311 70.233,107.311 Z" id="path-5" class="cls-7" fill-rule="evenodd"/>
    <path d="M72.799,138.170 C72.799,138.170 22.194,138.170 22.194,138.170 C20.197,138.170 18.579,136.552 18.579,134.556 C18.579,132.559 20.197,130.942 22.194,130.942 C22.194,130.942 72.799,130.942 72.799,130.942 C74.795,130.942 76.413,132.559 76.413,134.556 C76.413,136.552 74.795,138.170 72.799,138.170 Z" id="path-6" class="cls-7" fill-rule="evenodd"/>
    <path d="M72.799,173.398 C72.799,173.398 22.194,173.398 22.194,173.398 C20.197,173.398 18.579,171.780 18.579,169.784 C18.579,167.788 20.197,166.169 22.194,166.169 C22.194,166.169 72.799,166.169 72.799,166.169 C74.795,166.169 76.413,167.788 76.413,169.784 C76.413,171.780 74.795,173.398 72.799,173.398 Z" id="path-7" class="cls-7" fill-rule="evenodd"/>
    <path d="M33.447,216.892 C33.447,216.892 22.637,216.892 22.637,216.892 C22.637,216.892 22.637,203.359 22.637,203.359 C22.637,203.359 33.447,203.359 33.447,203.359 C33.447,203.359 33.447,216.892 33.447,216.892 Z" id="path-8" class="cls-5" fill-rule="evenodd"/>
    <path d="M72.197,216.892 C72.197,216.892 61.387,216.892 61.387,216.892 C61.387,216.892 61.387,203.359 61.387,203.359 C61.387,203.359 72.197,203.359 72.197,203.359 C72.197,203.359 72.197,216.892 72.197,216.892 Z" id="path-9" class="cls-5" fill-rule="evenodd"/>
  </g>
</svg>
